overrides/.icons/wp/crossbow.svg

<?xml version="1.0" encoding="UTF-8" standalone="no"?>
<svg
   width="24"
   height="24"
   version="1.1"
   viewBox="0 0 26.181818 26.181818"
   id="svg1"
   sodipodi:docname="crossbow.svg"
   inkscape:version="1.3.2 (091e20e, 2023-11-25, custom)"
   xmlns:inkscape="http://www.inkscape.org/namespaces/inkscape"
   xmlns:sodipodi="http://sodipodi.sourceforge.net/DTD/sodipodi-0.dtd"
   xmlns="http://www.w3.org/2000/svg"
   xmlns:svg="http://www.w3.org/2000/svg">
  <defs
     id="defs1" />
  <sodipodi:namedview
     id="namedview1"
     pagecolor="#ffffff"
     bordercolor="#111111"
     borderopacity="1"
     inkscape:showpageshadow="0"
     inkscape:pageopacity="0"
     inkscape:pagecheckerboard="1"
     inkscape:deskcolor="#d1d1d1"
     inkscape:zoom="19.772727"
     inkscape:cx="11"
     inkscape:cy="11"
     inkscape:window-width="1366"
     inkscape:window-height="697"
     inkscape:window-x="-8"
     inkscape:window-y="-8"
     inkscape:window-maximized="1"
     inkscape:current-layer="svg1" />
  <path
     d="m 2.1967316,2.1818182 c -0.00954,-3.354e-4 -0.014915,0.00348 -0.014915,0.011932 0,0.151937 0.7620765,1.1784138 1.2609376,1.6985963 0.1434764,0.1495919 0.2930699,0.2905057 0.4470161,0.4257091 L 5.3296564,16.841344 5.9202826,16.250717 4.6124596,4.8731051 c 1.1254498,0.7537609 2.5065862,1.2090691 4.2430117,1.4057594 1.3207367,0.149666 2.2276187,0.4407904 3.1198137,1.0019031 0.332867,0.2093319 0.725732,0.5555556 1.044047,0.8991596 l 0.948584,0.9485843 1.216196,-1.2161967 -0.9162,-0.9162012 -0.03921,-0.038346 C 13.35846,6.1039105 12.634777,5.5644802 11.810008,5.1556964 10.986791,4.7476439 10.509776,4.6393864 9.2582953,4.5761628 8.1479031,4.5200515 7.2398632,4.406641 6.4807797,4.2289116 4.8985098,3.8584415 3.508703,3.2008428 2.3697692,2.2835462 2.2923075,2.2211632 2.2253656,2.1827048 2.1967561,2.1816989 Z M 20.645568,5.5326036 c -0.157172,0.00749 -2.446541,0.6862485 -2.505306,0.7453528 -0.01577,0.015817 0.232335,0.1692532 0.551431,0.340918 l 0.212216,0.1137761 -0.723152,0.7231519 0.617055,0.6170542 0.700997,-0.7009974 0.07628,0.1487218 c 0.166796,0.3244595 0.311747,0.5815902 0.321731,0.5710205 0.03897,-0.041137 0.772243,-2.519453 0.75683,-2.5576988 -4.78e-4,-0.00119 -0.003,-0.00152 -0.0081,-0.00128 z m -3.734632,2.1579003 c -0.167315,0 -0.334582,0.063983 -0.462787,0.1921885 L 9.8809548,14.449886 C 9.5460815,14.251509 9.109637,14.295623 8.8211353,14.584124 l -5.1461301,5.14613 c -0.3418822,0.341882 -0.3418822,0.892226 0,1.234109 l 1.5426202,1.54262 c 0.3418822,0.341882 0.8922263,0.341882 1.2341085,0 l 5.1461291,-5.14613 c 0.288487,-0.288487 0.332627,-0.724927 0.134238,-1.059819 l 6.567195,-6.5671944 c 0.256411,-0.2564116 0.256411,-0.6691696 0,-0.9255813 L 17.373714,7.8826769 C 17.245509,7.7544711 17.078234,7.6904808 16.910927,7.6904885 Z m 1.359013,3.3073101 -1.217061,1.21706 0.906821,0.906821 c 0.35736,0.324307 0.723382,0.738349 0.941346,1.084955 0.561082,0.892195 0.852176,1.798985 1.001904,3.119814 0.196813,1.736673 0.652013,3.11764 1.405759,4.243012 L 9.9311047,20.261653 9.3404785,20.852279 21.863767,22.292165 c 0.135192,0.153961 0.27611,0.303548 0.425709,0.447017 0.520144,0.498869 1.546652,1.260948 1.698596,1.260937 0.03379,0 -0.0067,-0.08464 -0.08992,-0.187929 -0.917282,-1.138978 -1.574833,-2.528679 -1.945365,-4.11101 -0.177776,-0.759254 -0.291186,-1.667294 -0.347251,-2.777516 -0.06324,-1.251558 -0.171512,-1.728557 -0.579534,-2.551713 -0.40884,-0.824837 -0.948261,-1.548529 -1.802072,-2.418694 l -0.07884,-0.08054 -0.875286,-0.874854 z"
     id="path1"
     style="stroke-width:1" />
</svg>

<?xml version="1.0" encoding="UTF-8"?>
<svg id="svg1" width="24" height="24" version="1.1" viewBox="0 0 26.182 26.182" xmlns="http://www.w3.org/2000/svg">
 <path id="path1" d="m2.1967 2.1818c-0.00954-3.354e-4 -0.014915 0.00348-0.014915 0.011932 0 0.15194 0.76208 1.1784 1.2609 1.6986 0.14348 0.14959 0.29307 0.29051 0.44702 0.42571l1.4399 12.523 0.59063-0.59063-1.3078-11.378c1.1254 0.75376 2.5066 1.2091 4.243 1.4058 1.3207 0.14967 2.2276 0.44079 3.1198 1.0019 0.33287 0.20933 0.72573 0.55556 1.044 0.89916l0.94858 0.94858 1.2162-1.2162-0.9162-0.9162-0.03921-0.038346c-0.87024-0.85386-1.5939-1.3933-2.4187-1.8021-0.82322-0.40805-1.3002-0.51631-2.5517-0.57953-1.1104-0.056111-2.0184-0.16952-2.7775-0.34725-1.5823-0.37047-2.9721-1.0281-4.111-1.9454-0.077462-0.062383-0.1444-0.10084-0.17301-0.10185zm18.449 3.3508c-0.15717 0.00749-2.4465 0.68625-2.5053 0.74535-0.01577 0.015817 0.23234 0.16925 0.55143 0.34092l0.21222 0.11378-0.72315 0.72315 0.61706 0.61705 0.701-0.701 0.07628 0.14872c0.1668 0.32446 0.31175 0.58159 0.32173 0.57102 0.03897-0.041137 0.77224-2.5195 0.75683-2.5577-4.78e-4 -0.00119-3e-3 -0.00152-0.0081-0.00128zm-3.7346 2.1579c-0.16732 0-0.33458 0.063983-0.46279 0.19219l-6.5672 6.5672c-0.33487-0.19838-0.77132-0.15426-1.0598 0.13424l-5.1461 5.1461c-0.34188 0.34188-0.34188 0.89223 0 1.2341l1.5426 1.5426c0.34188 0.34188 0.89223 0.34188 1.2341 0l5.1461-5.1461c0.28849-0.28849 0.33263-0.72493 0.13424-1.0598l6.5672-6.5672c0.25641-0.25641 0.25641-0.66917 0-0.92558l-0.92558-0.92558c-0.1282-0.12821-0.29548-0.1922-0.46279-0.19219zm1.359 3.3073-1.2171 1.2171 0.90682 0.90682c0.35736 0.32431 0.72338 0.73835 0.94135 1.085 0.56108 0.8922 0.85218 1.799 1.0019 3.1198 0.19681 1.7367 0.65201 3.1176 1.4058 4.243l-11.378-1.3078-0.59063 0.59063 12.523 1.4399c0.13519 0.15396 0.27611 0.30355 0.42571 0.44702 0.52014 0.49887 1.5467 1.2609 1.6986 1.2609 0.03379 0-0.0067-0.08464-0.08992-0.18793-0.91728-1.139-1.5748-2.5287-1.9454-4.111-0.17778-0.75925-0.29119-1.6673-0.34725-2.7775-0.06324-1.2516-0.17151-1.7286-0.57953-2.5517-0.40884-0.82484-0.94826-1.5485-1.8021-2.4187l-0.07884-0.08054-0.87529-0.87485z"/>
</svg>
